X:88
T:Alemande. LIT.088
M:2/4
Q:1/4=110
L:1/16
B:Wm. Litten MS, 1802
Z:Village Music Project 2017 Anne Wride
K:D
A2 ||: dAFA dAFA | ecAc ecAc | f2fg e2 ef | dcBA GFED |
dAFA dAFA | ecAc ecAc | ffff eeee | d8 :|
|: d2 d'c' bagf | e2ba gfed | A2A2 c2c2 | dcde d4 |
d2 d'c' bagf | e2ba gfec | A2A2 e2e2 | d8 :|

